bitmaps_png/sources/add_hierarchical_subsheet.svg

<svg xmlns="http://www.w3.org/2000/svg" height="48" width="48" version="1.1" xmlns:xlink="http://www.w3.org/1999/xlink" viewBox="0 0 48 48">
 <defs>
  <filter id="h" color-interpolation-filters="sRGB">
   <feGaussianBlur stdDeviation="1.2065414"/>
  </filter>
  <filter id="g" color-interpolation-filters="sRGB">
   <feGaussianBlur stdDeviation="0.89955545"/>
  </filter>
  <radialGradient id="j" gradientUnits="userSpaceOnUse" cy="112.3" cx="102" gradientTransform="matrix(.875 0 0 .85714 10 17.143)" r="139.56">
   <stop stop-color="#00537d" offset="0"/>
   <stop stop-color="#186389" offset=".0151"/>
   <stop stop-color="#558ca8" offset=".0558"/>
   <stop stop-color="#89afc3" offset=".0964"/>
   <stop stop-color="#b3ccd8" offset=".1357"/>
   <stop stop-color="#d4e2e9" offset=".1737"/>
   <stop stop-color="#ecf2f5" offset=".20990"/>
   <stop stop-color="#fafcfd" offset=".24350"/>
   <stop stop-color="#fff" offset=".27220"/>
  </radialGradient>
  <radialGradient id="k" gradientUnits="userSpaceOnUse" cy="109.33" cx="99.081" gradientTransform="matrix(.85638 0 0 .84156 11.191 18.14)" r="139.56">
   <stop stop-color="#7a7d80" offset="0"/>
   <stop stop-color="#c2c2c2" offset=".12618"/>
   <stop stop-color="#fafafa" offset=".23251"/>
   <stop stop-color="#fff" offset=".27220"/>
   <stop stop-color="#fafafa" offset=".53130"/>
   <stop stop-color="#ebecec" offset=".84490"/>
   <stop stop-color="#e1e2e3" offset="1"/>
  </radialGradient>
  <linearGradient id="i" y2="94.104" gradientUnits="userSpaceOnUse" x2="86.572" gradientTransform="matrix(.875 0 0 .85714 10 17.143)" y1="104" x1="96">
   <stop stop-color="#888a85" offset="0"/>
   <stop stop-color="#8c8e89" offset=".0072"/>
   <stop stop-color="#abaca9" offset=".0673"/>
   <stop stop-color="#c5c6c4" offset=".1347"/>
   <stop stop-color="#dbdbda" offset=".2115"/>
   <stop stop-color="#ebebeb" offset=".3012"/>
   <stop stop-color="#f7f7f6" offset=".4122"/>
   <stop stop-color="#fdfdfd" offset=".5679"/>
   <stop stop-color="#fff" offset="1"/>
  </linearGradient>
 </defs>
 <g transform="matrix(.35996 0 0 .33328 3.0568 3.6295)">
  <use xlink:href="#l" transform="translate(-12,-12)" height="128" width="128" y="0" x="0"/>
  <g id="l" transform="translate(-4,-8)">
   <path opacity=".6" d="m23 25v96h53.525c0.464 0 30.475-29.398 30.475-29.853v-66.147h-84z" transform="matrix(1.0476,0,0,1.0417,-2.0952,-4.0417)" filter="url(#g)"/>
   <path fill="url(#j)" d="m24 24v96h53.525c0.464 0 30.475-29.398 30.475-29.853v-66.147h-84z"/>
   <path fill="url(#k)" d="m26.606 25.714c-0.47187 0-0.85638 0.37786-0.85638 0.84156v90.888c0 0.46455 0.38452 0.84157 0.85638 0.84157h50.674c0.22523 0 0.44618-0.0892 0.60546-0.24658l28.115-27.618c0.16013-0.15737 0.25092-0.37365 0.25092-0.59498v-63.262c0-0.4637-0.38366-0.84156-0.85639-0.84156h-78.787z"/>
   <path opacity=".5" filter="url(#h)" d="m76.526 120s11.662-9 16.474-13.714c4.812-4.72 14-16.143 14-16.143s-8 5.853-24 5.853c0 16-6.4745 24-6.4745 24z"/>
   <path fill="url(#i)" d="m77.526 120s11.662-9 16.474-13.714c4.812-4.72 14-16.143 14-16.143s-8 5.853-24 5.853c0 16-6.4745 24-6.4745 24z"/>
  </g>
  <g transform="translate(8,4)">
   <path opacity=".6" d="m23 25v96h53.525c0.464 0 30.475-29.398 30.475-29.853v-66.147h-84z" transform="matrix(1.0476,0,0,1.0417,-2.0952,-4.0417)" filter="url(#g)"/>
   <path fill="url(#j)" d="m24 24v96h53.525c0.464 0 30.475-29.398 30.475-29.853v-66.147h-84z"/>
   <path fill="url(#k)" d="m26.606 25.714c-0.47187 0-0.85638 0.37786-0.85638 0.84156v90.888c0 0.46455 0.38452 0.84157 0.85638 0.84157h50.674c0.22523 0 0.44618-0.0892 0.60546-0.24658l28.115-27.618c0.16013-0.15737 0.25092-0.37365 0.25092-0.59498v-63.262c0-0.4637-0.38366-0.84156-0.85639-0.84156h-78.787z"/>
   <path opacity=".5" filter="url(#h)" d="m76.526 120s11.662-9 16.474-13.714c4.812-4.72 14-16.143 14-16.143s-8 5.853-24 5.853c0 16-6.4745 24-6.4745 24z"/>
   <path fill="url(#i)" d="m77.526 120s11.662-9 16.474-13.714c4.812-4.72 14-16.143 14-16.143s-8 5.853-24 5.853c0 16-6.4745 24-6.4745 24z"/>
  </g>
 </g>
 <g transform="matrix(3.433,0,0,3.1874,-4.0908,20.787)">
  <path fill="#afaf00" d="m12 5.5-2.5174-1.3495-2.5388 1.3087 0.5056-2.8112-2.0292-2.0101 2.8298-0.3879 1.2847-2.551 1.2433 2.5714 2.823 0.43352-2.061 1.9771z" transform="matrix(.86499 0 0 .86499 3.3638 -4.5167)"/>
  <path fill="#ebeb00" d="m12 5.5-2.5174-1.3495-2.5388 1.3087 0.5056-2.8112-2.0292-2.0101 2.8298-0.3879 1.2847-2.551 1.2433 2.5714 2.823 0.43352-2.061 1.9771z" transform="matrix(.61624 0 0 .61624 5.7296 -4.1188)"/>
  <path fill="#ff0" d="m12 5.5-2.5174-1.3495-2.5388 1.3087 0.5056-2.8112-2.0292-2.0101 2.8298-0.3879 1.2847-2.551 1.2433 2.5714 2.823 0.43352-2.061 1.9771z" transform="matrix(.3815 0 0 .3815 7.9622 -3.7434)"/>
 </g>
</svg>

<?xml version="1.0" encoding="UTF-8" standalone="no"?>
<svg
   xmlns:dc="http://purl.org/dc/elements/1.1/"
   xmlns:cc="http://creativecommons.org/ns#"
   xmlns:rdf="http://www.w3.org/1999/02/22-rdf-syntax-ns#"
   xmlns:svg="http://www.w3.org/2000/svg"
   xmlns="http://www.w3.org/2000/svg"
   xmlns:xlink="http://www.w3.org/1999/xlink"
   xmlns:sodipodi="http://sodipodi.sourceforge.net/DTD/sodipodi-0.dtd"
   xmlns:inkscape="http://www.inkscape.org/namespaces/inkscape"
   height="48"
   width="48"
   version="1.1"
   viewBox="0 0 48 48"
   id="svg2"
   inkscape:version="0.47 r22583"
   sodipodi:docname="add_hierarchical_subsheet.svg">
  <metadata
     id="metadata102">
    <rdf:RDF>
      <cc:Work
         rdf:about="">
        <dc:format>image/svg+xml</dc:format>
        <dc:type
           rdf:resource="http://purl.org/dc/dcmitype/StillImage" />
        <dc:title></dc:title>
      </cc:Work>
    </rdf:RDF>
  </metadata>
  <sodipodi:namedview
     pagecolor="#ffffff"
     bordercolor="#666666"
     borderopacity="1"
     objecttolerance="10"
     gridtolerance="10"
     guidetolerance="10"
     inkscape:pageopacity="0"
     inkscape:pageshadow="2"
     inkscape:window-width="640"
     inkscape:window-height="495"
     id="namedview100"
     showgrid="false"
     inkscape:zoom="4.9166667"
     inkscape:cx="24"
     inkscape:cy="23.59322"
     inkscape:window-x="0"
     inkscape:window-y="25"
     inkscape:window-maximized="0"
     inkscape:current-layer="svg2" />
  <defs
     id="defs4">
    <filter
       id="h"
       color-interpolation-filters="sRGB">
      <feGaussianBlur
         stdDeviation="1.2065414"
         id="feGaussianBlur7" />
    </filter>
    <filter
       id="g"
       color-interpolation-filters="sRGB">
      <feGaussianBlur
         stdDeviation="0.89955545"
         id="feGaussianBlur10" />
    </filter>
    <radialGradient
       id="j"
       gradientUnits="userSpaceOnUse"
       cy="112.3"
       cx="102"
       gradientTransform="matrix(.875 0 0 .85714 10 17.143)"
       r="139.56">
      <stop
         stop-color="#00537d"
         offset="0"
         id="stop13" />
      <stop
         stop-color="#186389"
         offset=".0151"
         id="stop15" />
      <stop
         stop-color="#558ca8"
         offset=".0558"
         id="stop17" />
      <stop
         stop-color="#89afc3"
         offset=".0964"
         id="stop19" />
      <stop
         stop-color="#b3ccd8"
         offset=".1357"
         id="stop21" />
      <stop
         stop-color="#d4e2e9"
         offset=".1737"
         id="stop23" />
      <stop
         stop-color="#ecf2f5"
         offset=".20990"
         id="stop25" />
      <stop
         stop-color="#fafcfd"
         offset=".24350"
         id="stop27" />
      <stop
         stop-color="#fff"
         offset=".27220"
         id="stop29" />
    </radialGradient>
    <radialGradient
       id="k"
       gradientUnits="userSpaceOnUse"
       cy="109.33"
       cx="99.081"
       gradientTransform="matrix(.85638 0 0 .84156 11.191 18.14)"
       r="139.56">
      <stop
         stop-color="#7a7d80"
         offset="0"
         id="stop32" />
      <stop
         stop-color="#c2c2c2"
         offset=".12618"
         id="stop34" />
      <stop
         stop-color="#fafafa"
         offset=".23251"
         id="stop36" />
      <stop
         stop-color="#fff"
         offset=".27220"
         id="stop38" />
      <stop
         stop-color="#fafafa"
         offset=".53130"
         id="stop40" />
      <stop
         stop-color="#ebecec"
         offset=".84490"
         id="stop42" />
      <stop
         stop-color="#e1e2e3"
         offset="1"
         id="stop44" />
    </radialGradient>
    <linearGradient
       id="i"
       y2="94.104"
       gradientUnits="userSpaceOnUse"
       x2="86.572"
       gradientTransform="matrix(.875 0 0 .85714 10 17.143)"
       y1="104"
       x1="96">
      <stop
         stop-color="#888a85"
         offset="0"
         id="stop47" />
      <stop
         stop-color="#8c8e89"
         offset=".0072"
         id="stop49" />
      <stop
         stop-color="#abaca9"
         offset=".0673"
         id="stop51" />
      <stop
         stop-color="#c5c6c4"
         offset=".1347"
         id="stop53" />
      <stop
         stop-color="#dbdbda"
         offset=".2115"
         id="stop55" />
      <stop
         stop-color="#ebebeb"
         offset=".3012"
         id="stop57" />
      <stop
         stop-color="#f7f7f6"
         offset=".4122"
         id="stop59" />
      <stop
         stop-color="#fdfdfd"
         offset=".5679"
         id="stop61" />
      <stop
         stop-color="#fff"
         offset="1"
         id="stop63" />
    </linearGradient>
  </defs>
  <g
     transform="matrix(.35996 0 0 .33328 3.0568 3.6295)"
     id="g65">
    <use
       xlink:href="#l"
       transform="translate(-12,-12)"
       height="128"
       width="128"
       y="0"
       x="0"
       id="use67" />
    <g
       id="l"
       transform="translate(-4,-8)">
      <path
         opacity=".6"
         d="m23 25v96h53.525c0.464 0 30.475-29.398 30.475-29.853v-66.147h-84z"
         transform="matrix(1.0476,0,0,1.0417,-2.0952,-4.0417)"
         filter="url(#g)"
         id="path70" />
      <path
         fill="url(#j)"
         d="m24 24v96h53.525c0.464 0 30.475-29.398 30.475-29.853v-66.147h-84z"
         id="path72" />
      <path
         fill="url(#k)"
         d="m26.606 25.714c-0.47187 0-0.85638 0.37786-0.85638 0.84156v90.888c0 0.46455 0.38452 0.84157 0.85638 0.84157h50.674c0.22523 0 0.44618-0.0892 0.60546-0.24658l28.115-27.618c0.16013-0.15737 0.25092-0.37365 0.25092-0.59498v-63.262c0-0.4637-0.38366-0.84156-0.85639-0.84156h-78.787z"
         id="path74" />
      <path
         opacity=".5"
         filter="url(#h)"
         d="m76.526 120s11.662-9 16.474-13.714c4.812-4.72 14-16.143 14-16.143s-8 5.853-24 5.853c0 16-6.4745 24-6.4745 24z"
         id="path76" />
      <path
         fill="url(#i)"
         d="m77.526 120s11.662-9 16.474-13.714c4.812-4.72 14-16.143 14-16.143s-8 5.853-24 5.853c0 16-6.4745 24-6.4745 24z"
         id="path78" />
    </g>
    <g
       transform="translate(8,4)"
       id="g80">
      <path
         opacity=".6"
         d="m23 25v96h53.525c0.464 0 30.475-29.398 30.475-29.853v-66.147h-84z"
         transform="matrix(1.0476,0,0,1.0417,-2.0952,-4.0417)"
         filter="url(#g)"
         id="path82" />
      <path
         fill="url(#j)"
         d="m24 24v96h53.525c0.464 0 30.475-29.398 30.475-29.853v-66.147h-84z"
         id="path84" />
      <path
         fill="url(#k)"
         d="m26.606 25.714c-0.47187 0-0.85638 0.37786-0.85638 0.84156v90.888c0 0.46455 0.38452 0.84157 0.85638 0.84157h50.674c0.22523 0 0.44618-0.0892 0.60546-0.24658l28.115-27.618c0.16013-0.15737 0.25092-0.37365 0.25092-0.59498v-63.262c0-0.4637-0.38366-0.84156-0.85639-0.84156h-78.787z"
         id="path86" />
      <path
         opacity=".5"
         filter="url(#h)"
         d="m76.526 120s11.662-9 16.474-13.714c4.812-4.72 14-16.143 14-16.143s-8 5.853-24 5.853c0 16-6.4745 24-6.4745 24z"
         id="path88" />
      <path
         fill="url(#i)"
         d="m77.526 120s11.662-9 16.474-13.714c4.812-4.72 14-16.143 14-16.143s-8 5.853-24 5.853c0 16-6.4745 24-6.4745 24z"
         id="path90" />
    </g>
  </g>
  <g
     transform="matrix(3.433,0,0,3.1874,24.180386,21.397169)"
     id="g92">
    <path
       d="M 12,5.5 9.4826,4.1505 6.9438,5.4592 7.4494,2.648 5.4202,0.6379 8.25,0.25 9.5347,-2.301 10.778,0.2704 13.601,0.70392 11.54,2.68102 z"
       transform="matrix(0.86499,0,0,0.86499,3.3638,-4.5167)"
       id="path94"
       style="fill:#afaf00" />
    <path
       d="M 12,5.5 9.4826,4.1505 6.9438,5.4592 7.4494,2.648 5.4202,0.6379 8.25,0.25 9.5347,-2.301 10.778,0.2704 13.601,0.70392 11.54,2.68102 z"
       transform="matrix(0.61624,0,0,0.61624,5.7296,-4.1188)"
       id="path96"
       style="fill:#ebeb00" />
    <path
       d="M 12,5.5 9.4826,4.1505 6.9438,5.4592 7.4494,2.648 5.4202,0.6379 8.25,0.25 9.5347,-2.301 10.778,0.2704 13.601,0.70392 11.54,2.68102 z"
       transform="matrix(0.3815,0,0,0.3815,7.9622,-3.7434)"
       id="path98"
       style="fill:#ffff00" />
  </g>
</svg>
